media/costumes/K-glow.svg

<svg width="78" height="74" xmlns="http://www.w3.org/2000/svg"><path fill="#0CC" d="M77.67 55.77v.62c0 6.55-4.23 11.88-10.81 13.66-1.82.53-3.88.68-8.72.68 0 0-.79.05-2.82.57-2.39.62-4.73 1.23-7.03 1.81-.13.04-.25.07-.38.09-1.91.42-3.58.62-5.11.62-.34 0-.68-.01-1-.03-2.21-.11-5.28-.9-8.28-3.74-.14-.13-.27-.26-.4-.39-1.8.39-3.83.56-6.21.49-.25.05-.55.12-.89.19-2.23.49-3.82.72-5.25.74-.1.01-.3.04-.64.11-1.75.34-3.28.51-4.65.51-3.12 0-6.07-.76-8.77-2.27-.26-.14-.5-.29-.74-.45C2.13 66.44.11 61.99.7 57.38c.7-5.35 3.89-9.48 8.53-11.39v-1.18c-.45-1.75-.47-3.61-.03-5.4.02-.15.07-.66.04-1.7-.01-.05-.01-.1-.01-.14-.05-3.29-.06-5.81-.02-7.66-1.04-.37-2.04-.85-2.98-1.44C2.32 26.03 0 21.87 0 17.33 0 13.31 1.81 6.24 13.93 4.05c2.15-.4 5.37-1.01 9.67-1.81.29-.07.78-.2 1.47-.38 1.84-.49 3.38-.72 4.84-.72 1.42 0 2.73.18 3.93.49.55-.23 1.11-.43 1.68-.59C37.37.5 39.61.27 47.13.27c1.85-.12 4.3-.21 7.46-.27.39 0 .79.01 1.18.04.09 0 .19-.01.31-.01.25-.02.49-.03.74-.03h2.11c6.22 0 11.38 3.03 13.8 8.11.07.13.13.27.19.41 2.01 4.7 1.1 9.96-2.43 14.08-2.22 2.64-5.07 3.71-7.38 4.34-1.78.53-3.7.7-6.03.55-.46.38-1.24 1.07-2.4 2.26-.06.06-.11.12-.17.18.27.67.57 1.38.87 2.13 1.33 3.24 2.01 4.74 2.32 5.38.32.46.62.95.87 1.46.51 1.01 1.25 2.44 2.22 4.28.24-.03.5-.07.76-.1 2.36-.44 4.87-.18 7.39.76 3.53 1.33 6.21 3.8 7.58 6.97l.27.63c.58 1.37.88 2.84.88 4.33z"/><path fill="#FFF" d="M66.41 55.157l.264.616v.615c0 1.584-.938 2.61-2.814 3.079-.527.176-2.434.264-5.717.264-1.35 0-3.211.308-5.586.924-2.375.615-4.706 1.218-6.993 1.803-1.35.295-2.404.411-3.166.353-.352 0-.792-.249-1.319-.748-.528-.497-.792-.981-.792-1.451 0-.233.058-.439.176-.616.762-1.113 2.169-1.904 4.223-2.375 2.403-.469 3.927-.938 4.573-1.407-1.583-2.58-3.841-6.538-6.772-11.875-.763-1.816-2.142-4.808-4.134-8.972-.295-.703-.822-1.847-1.584-3.431-1.407.998-3.05 2.463-4.926 4.398-2.17 2.229-3.753 3.782-4.75 4.662-.41.294-1.055.821-1.935 1.583-.118 5.044.116 8.943.703 11.699.821.059 1.861-.015 3.123-.221 1.26-.204 2.067-.308 2.419-.308.938 0 1.612.411 2.023 1.231.233.528.352.968.352 1.319 0 2.17-2.493 3.109-7.477 2.814-.294 0-1.174.163-2.639.484-1.467.323-2.507.483-3.123.483-.615 0-1.451.104-2.507.309-1.056.206-1.906.308-2.551.308a6.947 6.947 0 0 1-3.431-.88c-.352-.233-.499-.586-.439-1.056.229-1.759 1.265-2.727 3.104-2.902 2.987-.352 4.653-.616 4.998-.792.345-.176.519-.645.519-1.407V42.753c0-.058-.118-.293-.353-.703.293-1.113.41-2.668.353-4.662-.06-3.694-.06-6.392 0-8.093.058-2.463.264-5.482.615-9.06.117-.88.058-1.377-.176-1.495-.646.059-1.701.25-3.166.571-1.467.323-2.522.483-3.167.483a4.24 4.24 0 0 1-2.287-.659c-.703-.439-1.056-1.04-1.056-1.804 0-1.055 1.642-1.876 4.926-2.463 2.169-.409 5.454-1.024 9.852-1.847.293-.058.997-.233 2.111-.528.88-.233 1.553-.352 2.023-.352 1.641 0 2.463.587 2.463 1.76 0 .938-.297 1.789-.891 2.551-.712.47-1.767.747-3.16.835-1.395.088-2.152.206-2.271.353-.119.147-.325 1.451-.621 3.914-.357 2.814-.534 4.78-.534 5.894v8.18l.264.265 19.527-18.427c-.822-.058-2.082-.117-3.782-.178-2.874-.058-4.398-1.209-4.574-3.453 0-.354.249-.782.747-1.285.498-.502.981-.812 1.452-.931.761-.236 3.752-.354 8.972-.354 1.7-.118 4.134-.206 7.3-.266.469.06 1.145.06 2.023 0h2.111c1.992 0 3.283.616 3.871 1.848.352.821.115 1.701-.705 2.639-.234.294-.91.587-2.023.88-.703.234-1.934.234-3.693 0-.764-.058-1.906-.058-3.43 0a2.163 2.163 0 0 1-1.057 1.319c-1.35.821-3.049 2.287-5.102 4.397a465.29 465.29 0 0 0-5.102 5.366c.704 1.877 1.876 4.809 3.519 8.796 1.993 4.868 3.167 7.389 3.519 7.564a282.004 282.004 0 0 0 2.639 5.102c2.521 3.988 3.986 5.981 4.398 5.981 1.699-.176 4.25-.497 7.652-.968.41-.116.967-.044 1.672.22.704.267 1.143.604 1.319 1.014z"/></svg>

<svg version="1.1" width="78" height="74" xmlns="http://www.w3.org/2000/svg" xmlns:xlink="http://www.w3.org/1999/xlink">
  <!-- Exported by Scratch - http://scratch.mit.edu/ -->
  <g id="ID0.051367413718253374">
    <g id="ID0.8733905404806137">
      <g id="ID0.1347602866590023">
        <path id="ID0.9752935594879091" fill="#00CCCC" d="M 77.670 55.770 L 77.670 56.390 C 77.670 62.940 73.440 68.270 66.860 70.050 C 65.040 70.580 62.980 70.730 58.140 70.730 C 58.140 70.730 57.350 70.780 55.320 71.300 C 52.930 71.920 50.590 72.530 48.290 73.110 C 48.160 73.150 48.040 73.180 47.910 73.200 C 46 73.620 44.330 73.820 42.800 73.820 C 42.460 73.820 42.120 73.810 41.800 73.790 C 39.590 73.680 36.520 72.890 33.520 70.050 C 33.380 69.920 33.250 69.790 33.120 69.660 C 31.320 70.050 29.290 70.220 26.910 70.150 C 26.660 70.200 26.360 70.270 26.020 70.340 C 23.790 70.830 22.200 71.060 20.770 71.080 C 20.670 71.090 20.470 71.120 20.130 71.190 C 18.380 71.530 16.850 71.700 15.480 71.700 C 12.360 71.700 9.410 70.940 6.710 69.430 C 6.450 69.290 6.210 69.140 5.970 68.980 C 2.130 66.440 0.110 61.990 0.700 57.380 C 1.400 52.030 4.590 47.900 9.230 45.990 L 9.230 44.810 C 8.780 43.060 8.760 41.200 9.200 39.410 C 9.220 39.260 9.270 38.750 9.240 37.710 C 9.230 37.660 9.230 37.610 9.230 37.570 C 9.180 34.280 9.170 31.760 9.210 29.910 C 8.170 29.540 7.170 29.060 6.230 28.470 C 2.320 26.030 0 21.870 0 17.330 C 0 13.310 1.810 6.240 13.930 4.050 C 16.080 3.650 19.300 3.040 23.600 2.240 C 23.890 2.170 24.380 2.040 25.070 1.860 C 26.910 1.370 28.450 1.140 29.910 1.140 C 31.330 1.140 32.640 1.320 33.840 1.630 C 34.390 1.400 34.950 1.200 35.520 1.040 C 37.370 0.500 39.610 0.270 47.130 0.270 C 48.980 0.150 51.430 0.060 54.590 0 C 54.980 0 55.380 0.010 55.770 0.040 C 55.860 0.040 55.960 0.030 56.080 0.030 C 56.330 0.010 56.570 0 56.820 0 L 58.930 0 C 65.150 0 70.310 3.030 72.730 8.110 C 72.800 8.240 72.860 8.380 72.920 8.520 C 74.930 13.220 74.020 18.480 70.490 22.600 C 68.270 25.240 65.420 26.310 63.110 26.940 C 61.330 27.470 59.410 27.640 57.080 27.490 C 56.620 27.870 55.840 28.560 54.680 29.750 C 54.620 29.810 54.570 29.870 54.510 29.930 C 54.780 30.600 55.080 31.310 55.380 32.060 C 56.710 35.300 57.390 36.800 57.700 37.440 C 58.020 37.900 58.320 38.390 58.570 38.900 C 59.080 39.910 59.820 41.340 60.790 43.180 C 61.030 43.150 61.290 43.110 61.550 43.080 C 63.910 42.640 66.420 42.900 68.940 43.840 C 72.470 45.170 75.150 47.640 76.520 50.810 L 76.790 51.440 C 77.370 52.810 77.670 54.280 77.670 55.770 Z "/>
      </g>
    </g>
    <g id="ID0.1337555479258299">
      <path id="ID0.23075303388759494" fill="#FFFFFF" d="M 66.410 55.157 C 66.586 55.568 66.674 55.773 66.674 55.773 C 66.674 55.773 66.674 55.979 66.674 56.388 C 66.674 57.972 65.736 58.998 63.860 59.467 C 63.333 59.643 61.426 59.731 58.143 59.731 C 56.793 59.731 54.932 60.039 52.557 60.655 C 50.182 61.270 47.851 61.873 45.564 62.458 C 44.214 62.753 43.160 62.869 42.398 62.811 C 42.046 62.811 41.606 62.562 41.079 62.063 C 40.551 61.566 40.287 61.082 40.287 60.612 C 40.287 60.379 40.345 60.173 40.463 59.996 C 41.225 58.883 42.632 58.092 44.686 57.621 C 47.089 57.152 48.613 56.683 49.259 56.214 C 47.676 53.634 45.418 49.676 42.487 44.339 C 41.724 42.523 40.345 39.531 38.353 35.367 C 38.058 34.664 37.531 33.520 36.769 31.936 C 35.362 32.934 33.719 34.399 31.843 36.334 C 29.673 38.563 28.090 40.116 27.093 40.996 C 26.683 41.290 26.038 41.817 25.158 42.579 C 25.040 47.623 25.274 51.522 25.861 54.278 C 26.682 54.337 27.722 54.263 28.984 54.057 C 30.244 53.853 31.051 53.749 31.403 53.749 C 32.341 53.749 33.015 54.160 33.426 54.980 C 33.659 55.508 33.778 55.948 33.778 56.299 C 33.778 58.469 31.285 59.408 26.301 59.113 C 26.007 59.113 25.127 59.276 23.662 59.597 C 22.195 59.920 21.155 60.080 20.539 60.080 C 19.924 60.080 19.088 60.184 18.032 60.389 C 16.976 60.595 16.126 60.697 15.481 60.697 C 14.250 60.697 13.106 60.404 12.050 59.817 C 11.698 59.584 11.551 59.231 11.611 58.761 C 11.840 57.002 12.876 56.034 14.715 55.859 C 17.702 55.507 19.368 55.243 19.713 55.067 C 20.058 54.891 20.232 54.422 20.232 53.660 C 20.232 53.133 20.232 52.311 20.232 51.197 C 20.232 50.025 20.232 49.204 20.232 48.734 L 20.232 42.753 C 20.232 42.695 20.114 42.460 19.879 42.050 C 20.172 40.937 20.289 39.382 20.232 37.388 C 20.172 33.694 20.172 30.996 20.232 29.295 C 20.290 26.832 20.496 23.813 20.847 20.235 C 20.964 19.355 20.905 18.858 20.671 18.740 C 20.025 18.799 18.970 18.990 17.505 19.311 C 16.038 19.634 14.983 19.794 14.338 19.794 C 13.516 19.794 12.755 19.574 12.051 19.135 C 11.348 18.696 10.995 18.095 10.995 17.331 C 10.995 16.276 12.637 15.455 15.921 14.868 C 18.090 14.459 21.375 13.844 25.773 13.021 C 26.066 12.963 26.770 12.788 27.884 12.493 C 28.764 12.260 29.437 12.141 29.907 12.141 C 31.548 12.141 32.370 12.728 32.370 13.901 C 32.370 14.839 32.073 15.690 31.479 16.452 C 30.767 16.922 29.712 17.199 28.319 17.287 C 26.924 17.375 26.167 17.493 26.048 17.640 C 25.929 17.787 25.723 19.091 25.427 21.554 C 25.070 24.368 24.893 26.334 24.893 27.448 C 24.893 28.094 24.893 29.383 24.893 31.318 C 24.893 33.195 24.893 34.631 24.893 35.628 L 25.157 35.893 L 44.684 17.466 C 43.862 17.408 42.602 17.349 40.902 17.288 C 38.028 17.230 36.504 16.079 36.328 13.835 C 36.328 13.481 36.577 13.053 37.075 12.550 C 37.573 12.048 38.056 11.738 38.527 11.619 C 39.288 11.383 42.279 11.265 47.499 11.265 C 49.199 11.147 51.633 11.059 54.799 10.999 C 55.268 11.059 55.944 11.059 56.822 10.999 C 57.818 10.999 58.523 10.999 58.933 10.999 C 60.925 10.999 62.216 11.615 62.804 12.847 C 63.156 13.668 62.919 14.548 62.099 15.486 C 61.865 15.780 61.189 16.073 60.076 16.366 C 59.373 16.600 58.142 16.600 56.383 16.366 C 55.619 16.308 54.477 16.308 52.953 16.366 C 52.777 16.953 52.424 17.392 51.896 17.685 C 50.546 18.506 48.847 19.972 46.794 22.082 C 45.093 23.842 43.393 25.631 41.692 27.448 C 42.396 29.325 43.568 32.257 45.211 36.244 C 47.204 41.112 48.378 43.633 48.730 43.808 C 49.316 44.982 50.195 46.682 51.369 48.910 C 53.890 52.898 55.355 54.891 55.767 54.891 C 57.466 54.715 60.017 54.394 63.419 53.923 C 63.829 53.807 64.386 53.879 65.091 54.143 C 65.795 54.410 66.234 54.747 66.410 55.157 Z "/>
    </g>
  </g>
</svg>
